X: 723
T: Ey Padişeh-i Saltanat
C: Rifat Bey (Sermüezzin, Miralay)
O: Turkey
F: http://compmusic.upf.edu/node/140
N: rast--mersiye--sofyan--ey_padiseh-i--rifat_bey
N: makam= rast
N: form= mersiye
N: usul= sofyan = 4/4
M: 4/4
L: 1/16
K: C _1/4B ^f  
Q: 1/4=60
%%MIDI tuningsystem comma53
G4 B2AB dcBA G4  | d4 e2f2 g4 gagf  | \
w:  Ey  pa *  *  di *  şeh_ *  i   |  sal ta nat_ â  | 
f3e e/d/e/f/ed {e}d4 a2gf  | 
w:  râ  *  yı  *  *  *  ye *  *  gâ  | 
f3e e/d/e/f/ed d4 z4  | d4 f2ef agfe d4  | \
w:  ne    |  Zâ tın *  *  dır  *  e *  den   | 
d2cd e2dc B4 BcBA  | 
w:  bahş_ *  *  i  şe *  ref   | 
A3G G2B2 e6dc  | B3A A/G/A/B/AG G4 z4  | \
w:  şev *  kat_ ü  şâ  |  ne    | 
d4 f2ef agfe d4  | 
w:  Zâ tın *  *  dır  *  e *  den   | 
d2cd e2dc B4 BcBA  | A3G G2B2 e6dc  | \
w:  bahş_ *  *  i  şe *  ref   |  şev *  kat_ ü  şâ  | 
B3A A/G/A/B/AG G4 z4  | 
w:  ne    | 
G3/2F/GA B3/2A/Bc d2ef g3a  | b3a d'c'ba a4 a/g/a/b/ag  | 
w:  İk *  *  *  bâ *  *  *  lin_ o *  la   |  haş *  re  *  ka *  dar   | 
f3e e/d/e/f/ed d4 a2gf  | f3e e/d/e/f/ed d4 z4  | 
w:  nâ *  mü *  *  *  te *  nâ  |  hî    | 
d4 f2ef agfe d4  | d2cd e2dc B4 BcBA  | \
w:  Nûr_ i  *  *  ke *  re *  min   |  mün *  *  te şir_ *  ak  | 
A3G G2B2 e6dc  | 
w:  târ_ *  ı  ci hâ  | 
B3A A/G/A/B/AG {A}G4 z4  | d4 f2ef agfe d4  | \
w:  ne    |  Nûr_ i  *  *  ke *  re *  min   | 
d2cd e2dc B4 BcBA  | 
w:  mün *  *  te şir_ *  ak  | 
A3G G2B2 e6dc  | B3A A/G/A/B/AG {A}G4 z4  | |


